X:74
T: Mei Voda sei Haeusl is mit Haberstroh deckt,
N: D0079
O: Europa, Mitteleuropa, Deutschland, Niederbayern
N: Viertonskala (Grundton fehlt - vermutlich mit Unterstimme gesungen)
R: Ehestands - Lied
M: 3/4
L: 1/8
K: G
Bc | d2d2d2 | B2B2
AB | d2d2d2 | c2z2
AB | c2c3B | A2A2
A2 | d2d2c2 | B2z2

@@@ Tune index: 2596
